svgs/thin/hand-wave.svg

<svg xmlns="http://www.w3.org/2000/svg" viewBox="0 0 512 512"><!--! Font Awesome Pro 6.3.0 by @fontawesome - https://fontawesome.com License - https://fontawesome.com/license (Commercial License) Copyright 2023 Fonticons, Inc. --><path d="M88 433.1c-39.69 0-72-32.39-72-72.18c0-4.418-3.594-8.02-8-8.02S0 356.5 0 360.9c0 48.66 39.47 88.22 88 88.22c4.406 0 8-3.602 8-8.02S92.41 433.1 88 433.1zM296 16.04c39.69 0 72 32.38 72 72.18c0 4.434 3.594 8.021 8 8.021S384 92.66 384 88.22C384 39.57 344.5 0 296 0C291.6 0 288 3.586 288 8.02S291.6 16.04 296 16.04zM435.1 96c-24.36 0-42.73 18.88-42.73 43.9V195.4L234 44.59C225.6 36.5 214.4 32 202.5 32C177.1 32 157.9 51.22 157.6 75.26c-7.713-5.623-17.03-8.666-26.82-8.666c-24.56 0-44.94 19.38-44.94 43.9c0 9.188 2.859 17.93 8.174 25.27C69.65 136.2 49.94 155.6 49.94 179.7c0 11.84 4.75 22.94 13.37 31.26l11.75 11.33C51.19 223.2 31.1 242.3 31.1 266c0 11.84 4.749 23.04 13.37 31.35l142.9 137.8C218.3 464.1 258.2 480 300.7 480c42.27 0 81.94-15.8 111.7-44.48l16.84-15.59C462.1 388.3 480 346.5 480 301.1V139.9C480 115.7 459.8 96 435.1 96zM464 301.1c0 40.11-16.21 77.83-45.64 106.2l-17.07 15.81C373.7 450.6 337.2 464 300.7 464c-36.67 0-73.38-13.44-101.3-40.4L57.5 286.8C51.57 281.1 48.51 273.3 48.51 265.7c0-17.98 15.27-27.46 28.44-27.46c7.406 0 14.81 2.727 20.46 8.176l91.83 88.53c1.73 1.668 3.966 2.502 6.201 2.502s4.47-.834 6.199-2.502c1.821-1.757 2.743-4.103 2.743-6.44c0-2.338-.9111-4.676-2.734-6.433L75.44 200.4C69.51 194.7 66.44 186.9 66.44 179.2c0-17.99 15.28-27.47 28.44-27.47c7.406 0 14.81 2.727 20.46 8.176l125.2 120.7c1.731 1.668 3.966 2.502 6.2 2.502c6.261 0 8.932-5.461 8.932-8.933c0-2.337-.9111-4.675-2.732-6.431L111.3 131.2c-5.925-5.712-8.992-13.49-8.992-21.16c0-17.98 15.27-27.46 28.44-27.46c7.406 0 14.81 2.727 20.46 8.176l145.6 140.4c1.729 1.668 3.964 2.502 6.199 2.502s4.47-.834 6.199-2.502c1.821-1.756 2.751-4.11 2.751-6.448s-.9106-4.675-2.732-6.431l-126.2-121.7c-5.924-5.711-8.99-13.48-8.99-21.16C174.1 57.48 189.4 48 202.5 48c7.406 0 14.81 2.727 20.46 8.176l171.8 163.7c1.611 1.535 3.557 2.223 5.463 2.223c4.118 0 8.054-3.209 8.054-8.016V139.9C408.3 124.5 419.1 112 435.1 112C451 112 464 124.5 464 139.9V301.1z"/></svg>

<svg xmlns="http://www.w3.org/2000/svg" viewBox="0 0 512 512"><!-- Font Awesome Pro 6.0.0-alpha2 by @fontawesome - https://fontawesome.com License - https://fontawesome.com/license (Commercial License) --><path d="M88 433.105C48.312 433.105 16 400.711 16 360.922C16 356.504 12.406 352.902 8 352.902S0 356.504 0 360.922C0 409.578 39.469 449.146 88 449.146C92.406 449.146 96 445.545 96 441.127S92.406 433.105 88 433.105ZM296 16.041C335.688 16.041 368 48.42 368 88.225C368 92.658 371.594 96.246 376 96.246S384 92.658 384 88.225C384 39.57 344.531 0 296 0C291.594 0 288 3.586 288 8.02S291.594 16.041 296 16.041ZM435.055 96C410.693 96 392.324 114.875 392.324 139.904V195.391L234.018 44.592C225.621 36.496 214.41 32 202.518 32C177.983 32 157.931 51.215 157.578 75.256C149.865 69.633 140.545 66.59 130.76 66.59C106.204 66.59 85.816 85.967 85.816 110.494C85.816 119.682 88.676 128.422 93.99 135.764C69.647 136.224 49.938 155.601 49.938 179.668C49.938 191.508 54.688 202.609 63.311 210.924L75.059 222.25C51.189 223.204 31.998 242.378 31.998 266.115C31.998 277.951 36.748 289.049 45.371 297.363L188.252 435.115C218.273 464.059 258.207 480 300.699 480C342.971 480 382.637 464.201 412.391 435.516L429.23 419.93C462.053 388.291 480 346.482 480 301.984V139.904C480 115.695 459.838 96 435.055 96ZM464 301.984C464 342.098 447.793 379.812 418.359 408.189L401.287 423.996C373.662 450.629 337.18 464 300.699 464C264.029 464 227.32 450.557 199.357 423.596L57.498 286.83C51.573 281.118 48.506 273.345 48.506 265.668C48.506 247.686 63.78 238.211 76.941 238.211C84.348 238.211 91.754 240.938 97.406 246.387L189.236 334.918C190.967 336.586 193.202 337.42 195.437 337.42S199.907 336.586 201.637 334.918L201.648 334.908C203.469 333.152 204.38 330.815 204.38 328.478C204.38 326.14 203.469 323.802 201.646 322.045L75.438 200.391C69.51 194.677 66.442 186.901 66.442 179.221C66.442 161.229 81.723 151.754 94.881 151.754C102.287 151.754 109.691 154.48 115.346 159.93L240.521 280.592C242.252 282.26 244.487 283.094 246.722 283.094C252.983 283.094 255.654 277.633 255.654 274.162C255.654 271.824 254.743 269.487 252.922 267.73L111.316 131.209C105.392 125.497 102.324 117.724 102.324 110.047C102.324 92.065 117.598 82.59 130.76 82.59C138.166 82.59 145.572 85.316 151.225 90.766L296.855 231.164C298.585 232.832 300.82 233.666 303.055 233.666S307.524 232.832 309.254 231.164L309.273 231.146C311.095 229.391 312.005 227.054 312.005 224.717S311.095 220.042 309.273 218.285L183.072 96.617C177.149 90.906 174.083 83.135 174.083 75.46C174.083 57.477 189.358 48 202.518 48C209.924 48 217.328 50.727 222.982 56.176L394.807 219.854C396.418 221.389 398.363 222.077 400.27 222.077C404.388 222.077 408.324 218.868 408.324 214.061V139.904C408.324 124.5 419.076 112 435.055 112C451.035 112 464 124.5 464 139.904V301.984Z"/></svg>
